symbols/web/all_out/materialsymbolsrounded/all_out_wght600fill1_40px.svg

<svg xmlns="http://www.w3.org/2000/svg" height="40" width="40"><path d="M6.167 35.667q-.75 0-1.292-.542t-.542-1.292v-4.791q0-.709.5-1.188t1.209-.479q.708 0 1.187.479.479.479.479 1.188v3.25h3.25q.709 0 1.188.479t.479 1.187q0 .709-.479 1.209-.479.5-1.188.5Zm22.875 0q-.709 0-1.188-.5t-.479-1.209q0-.708.479-1.187.479-.479 1.188-.479h3.25v-3.25q0-.709.479-1.188t1.187-.479q.709 0 1.209.479.5.479.5 1.188v4.791q0 .75-.542 1.292t-1.292.542ZM20 32.208q-5.083 0-8.646-3.562Q7.792 25.083 7.792 20t3.562-8.646Q14.917 7.792 20 7.792t8.646 3.562q3.562 3.563 3.562 8.646t-3.562 8.646Q25.083 32.208 20 32.208ZM6.042 12.625q-.709 0-1.209-.479-.5-.479-.5-1.188V6.167q0-.75.542-1.292t1.292-.542h4.791q.709 0 1.188.5t.479 1.209q0 .708-.479 1.187-.479.479-1.188.479h-3.25v3.25q0 .709-.479 1.188t-1.187.479Zm27.916 0q-.708 0-1.187-.479-.479-.479-.479-1.188v-3.25h-3.25q-.709 0-1.188-.479t-.479-1.187q0-.709.479-1.209.479-.5 1.188-.5h4.791q.75 0 1.292.542t.542 1.292v4.791q0 .709-.5 1.188t-1.209.479Z"/></svg>

<svg xmlns="http://www.w3.org/2000/svg" height="40" width="40"><path d="M6.167 35.667Q5.417 35.667 4.875 35.125Q4.333 34.583 4.333 33.833V29.042Q4.333 28.333 4.833 27.854Q5.333 27.375 6.042 27.375Q6.75 27.375 7.229 27.854Q7.708 28.333 7.708 29.042V32.292H10.958Q11.667 32.292 12.146 32.771Q12.625 33.25 12.625 33.958Q12.625 34.667 12.146 35.167Q11.667 35.667 10.958 35.667ZM29.042 35.667Q28.333 35.667 27.854 35.167Q27.375 34.667 27.375 33.958Q27.375 33.25 27.854 32.771Q28.333 32.292 29.042 32.292H32.292V29.042Q32.292 28.333 32.771 27.854Q33.25 27.375 33.958 27.375Q34.667 27.375 35.167 27.854Q35.667 28.333 35.667 29.042V33.833Q35.667 34.583 35.125 35.125Q34.583 35.667 33.833 35.667ZM20 32.208Q14.917 32.208 11.354 28.646Q7.792 25.083 7.792 20Q7.792 14.917 11.354 11.354Q14.917 7.792 20 7.792Q25.083 7.792 28.646 11.354Q32.208 14.917 32.208 20Q32.208 25.083 28.646 28.646Q25.083 32.208 20 32.208ZM6.042 12.625Q5.333 12.625 4.833 12.146Q4.333 11.667 4.333 10.958V6.167Q4.333 5.417 4.875 4.875Q5.417 4.333 6.167 4.333H10.958Q11.667 4.333 12.146 4.833Q12.625 5.333 12.625 6.042Q12.625 6.75 12.146 7.229Q11.667 7.708 10.958 7.708H7.708V10.958Q7.708 11.667 7.229 12.146Q6.75 12.625 6.042 12.625ZM33.958 12.625Q33.25 12.625 32.771 12.146Q32.292 11.667 32.292 10.958V7.708H29.042Q28.333 7.708 27.854 7.229Q27.375 6.75 27.375 6.042Q27.375 5.333 27.854 4.833Q28.333 4.333 29.042 4.333H33.833Q34.583 4.333 35.125 4.875Q35.667 5.417 35.667 6.167V10.958Q35.667 11.667 35.167 12.146Q34.667 12.625 33.958 12.625Z"/></svg>
